fs/folder_link_24_regular.svg

<svg viewBox="0 0 24 24" fill="none" xmlns="http://www.w3.org/2000/svg" height="1em" width="1em">
  <path d="M18.25 14.5C20.3211 14.5 22 16.1789 22 18.25C22 20.2543 20.4276 21.8913 18.4523 21.9948L18.2534 22L17.2534 22.0046C16.8392 22.0065 16.5019 21.6722 16.5 21.258C16.4983 20.8783 16.779 20.5633 17.1448 20.5119L17.2466 20.5046L18.25 20.5C19.4926 20.5 20.5 19.4926 20.5 18.25C20.5 17.0591 19.5748 16.0844 18.404 16.0052L18.25 16H17.25C16.8358 16 16.5 15.6642 16.5 15.25C16.5 14.8703 16.7822 14.5565 17.1482 14.5068L17.25 14.5H18.25ZM13.75 14.5C14.1642 14.5 14.5 14.8358 14.5 15.25C14.5 15.6297 14.2178 15.9435 13.8518 15.9932L13.75 16H12.75C11.5074 16 10.5 17.0074 10.5 18.25C10.5 19.4409 11.4252 20.4156 12.596 20.4948L12.75 20.5H13.75C14.1642 20.5 14.5 20.8358 14.5 21.25C14.5 21.6297 14.2178 21.9435 13.8518 21.9932L13.75 22H12.75C10.6789 22 9 20.3211 9 18.25C9 16.2457 10.5724 14.6087 12.5508 14.5052L12.75 14.5H13.75ZM8.20693 4C8.66749 4 9.1153 4.14129 9.49094 4.40235L9.64734 4.5215L12.022 6.5H19.75C20.8867 6.5 21.8266 7.34297 21.9785 8.43788L21.9948 8.59595L22 8.75L22.0008 15.3352C21.5959 14.8148 21.085 14.3809 20.5005 14.0659L20.5 8.75C20.5 8.3703 20.2178 8.05651 19.8518 8.00685L19.75 8H12.021L9.64734 9.9785C9.29353 10.2733 8.85906 10.4515 8.40335 10.4914L8.20693 10.5L3.5 10.499V17.75C3.5 18.1297 3.78215 18.4435 4.14823 18.4932L4.25 18.5L8.0065 18.5006C8.03392 19.0282 8.14742 19.5329 8.33322 20.0012L4.25 20C3.05914 20 2.08436 19.0748 2.00519 17.904L2 17.75V6.25C2 5.05914 2.92516 4.08436 4.09595 4.00519L4.25 4H8.20693ZM18.25 17.5C18.6642 17.5 19 17.8358 19 18.25C19 18.6297 18.7178 18.9435 18.3518 18.9932L18.25 19H12.75C12.3358 19 12 18.6642 12 18.25C12 17.8703 12.2822 17.5565 12.6482 17.5068L12.75 17.5H18.25ZM8.20693 5.5H4.25C3.8703 5.5 3.55651 5.78215 3.50685 6.14823L3.5 6.25V8.999L8.20693 9C8.34729 9 8.4841 8.96063 8.60221 8.88738L8.68706 8.82617L10.578 7.249L8.68706 5.67383C8.57923 5.58398 8.44893 5.52664 8.31129 5.5073L8.20693 5.5Z" fill="#212121"/>
</svg>

<svg viewBox="0 0 24 24" fill="none" xmlns="http://www.w3.org/2000/svg" height="1em" width="1em">
  <path d="M18.25 14.5a3.75 3.75 0 0 1 .202 7.495l-.199.005-1 .005a.75.75 0 0 1-.108-1.493l.102-.007 1.003-.005a2.25 2.25 0 0 0 .154-4.495L18.25 16h-1a.75.75 0 0 1-.102-1.493l.102-.007h1Zm-4.5 0a.75.75 0 0 1 .102 1.493L13.75 16h-1a2.25 2.25 0 0 0-.154 4.495l.154.005h1a.75.75 0 0 1 .102 1.493L13.75 22h-1a3.75 3.75 0 0 1-.2-7.495l.2-.005h1ZM8.207 4c.46 0 .908.141 1.284.402l.156.12L12.022 6.5h7.728a2.25 2.25 0 0 1 2.229 1.938l.016.158.005.154v6.585a4.77 4.77 0 0 0-1.5-1.27V8.75a.75.75 0 0 0-.648-.743L19.75 8h-7.729L9.647 9.979a2.25 2.25 0 0 1-1.244.512l-.196.009-4.707-.001v7.251c0 .38.282.694.648.743l.102.007h3.757c.027.528.14 1.033.326 1.501L4.25 20a2.25 2.25 0 0 1-2.245-2.096L2 17.75V6.25a2.25 2.25 0 0 1 2.096-2.245L4.25 4h3.957ZM18.25 17.5a.75.75 0 0 1 .102 1.493L18.25 19h-5.5a.75.75 0 0 1-.102-1.493l.102-.007h5.5ZM8.207 5.5H4.25a.75.75 0 0 0-.743.648L3.5 6.25v2.749L8.207 9a.75.75 0 0 0 .395-.113l.085-.06 1.891-1.578-1.89-1.575a.75.75 0 0 0-.377-.167L8.207 5.5Z" fill="#212121"/>
</svg>
